src/lib/packages/icons/src/assets/filled/bone-break.svg

<svg width="24" height="24" viewBox="0 0 24 24" fill="none" xmlns="http://www.w3.org/2000/svg">
<path d="M20.052 14.99C19.852 15.13 19.792 15.4001 19.932 15.6001C20.462 16.3901 20.4719 17.3601 19.8919 18.1101C18.9219 19.3701 17.142 19.24 16.321 18.05C16.151 17.8 16.0409 17.52 15.9809 17.25C15.8909 16.73 15.481 16.32 14.961 16.22L12 15.6499L9.03892 16.22C8.51892 16.32 8.10902 16.73 8.01902 17.25C7.95902 17.52 7.84893 17.8 7.67893 18.05C6.85893 19.24 5.07801 19.3701 4.10801 18.1101C3.52801 17.3601 3.53797 16.3901 4.06797 15.6001C4.20797 15.4001 4.14797 15.13 3.94797 14.99C2.79797 14.21 2.63793 12.5 3.77793 11.511C4.30793 11.061 5.04798 10.891 5.70798 11.071C6.27798 11.231 6.70801 11.561 6.98801 11.981C7.28801 12.441 7.80799 12.6911 8.33799 12.5911L11 12L12 15.6431L13 12L15.661 12.5911C16.191 12.6911 16.711 12.441 17.011 11.981C17.291 11.561 17.721 11.231 18.291 11.071C18.951 10.891 19.6909 11.061 20.2209 11.511C21.3619 12.5 21.202 14.21 20.052 14.99ZM12 7.75C12.414 7.75 12.75 7.414 12.75 7V4C12.75 3.586 12.414 3.25 12 3.25C11.586 3.25 11.25 3.586 11.25 4V7C11.25 7.414 11.586 7.75 12 7.75ZM14.4699 8.53003C14.1769 8.23703 14.1769 7.76199 14.4699 7.46899L16.4699 5.46899C16.7629 5.17599 17.238 5.17599 17.531 5.46899C17.824 5.76199 17.824 6.23703 17.531 6.53003L15.531 8.53003C15.385 8.67603 15.193 8.75 15.001 8.75C14.809 8.75 14.6159 8.67703 14.4699 8.53003ZM6.46995 6.53003C6.17695 6.23703 6.17695 5.76199 6.46995 5.46899C6.76295 5.17599 7.23798 5.17599 7.53098 5.46899L9.53098 7.46899C9.82398 7.76199 9.82398 8.23703 9.53098 8.53003C9.38498 8.67603 9.19295 8.75 9.00095 8.75C8.80895 8.75 8.61692 8.67703 8.47092 8.53003L6.46995 6.53003Z" fill="currentColor"/>
</svg>

<svg xmlns="http://www.w3.org/2000/svg" width="24" height="24" fill="none"><path fill="currentColor" d="M20.052 14.99c-.2.14-.26.41-.12.61.53.79.54 1.76-.04 2.51a2.193 2.193 0 0 1-3.571-.06 2.33 2.33 0 0 1-.34-.8c-.09-.52-.5-.93-1.02-1.03L12 15.65l-2.961.57c-.52.1-.93.51-1.02 1.03-.06.27-.17.55-.34.8a2.193 2.193 0 0 1-3.571.06c-.58-.75-.57-1.72-.04-2.51.14-.2.08-.47-.12-.61-1.15-.78-1.31-2.49-.17-3.479.53-.45 1.27-.62 1.93-.44.57.16 1 .49 1.28.91.3.46.82.71 1.35.61L11 12l1 3.643L13 12l2.661.591c.53.1 1.05-.15 1.35-.61.28-.42.71-.75 1.28-.91.66-.18 1.4-.01 1.93.44 1.14.989.981 2.699-.169 3.479ZM12 7.75a.75.75 0 0 0 .75-.75V4a.75.75 0 0 0-1.5 0v3c0 .414.336.75.75.75Zm2.47.78a.75.75 0 0 1 0-1.061l2-2a.75.75 0 0 1 1.06 1.061l-2 2a.748.748 0 0 1-1.061 0Zm-8-2a.75.75 0 0 1 1.06-1.061l2 2A.75.75 0 0 1 8.47 8.53l-2.001-2Z"/></svg>
